Sources/FrostedUI/Resources/Icons.xcassets/participants24.imageset/participants-24.svg

<svg width="24" height="24" viewBox="0 0 24 24" fill="none" xmlns="http://www.w3.org/2000/svg" data-fui-icon="true">
  <path
    d="M10.4998 13.875C12.8179 13.875 14.5557 14.3569 15.8503 15.1104C17.1475 15.8654 17.9558 16.8679 18.4539 17.8359C19.1951 19.2771 18.2514 20.787 16.8894 21.1895C15.4248 21.6222 13.1534 22.125 10.4998 22.125C7.84611 22.125 5.57469 21.6222 4.11011 21.1895C2.74831 20.7869 1.80458 19.277 2.54565 17.8359C3.04364 16.8679 3.85211 15.8654 5.14917 15.1104C6.44377 14.3569 8.18165 13.875 10.4998 13.875ZM10.4998 15.375C8.39082 15.375 6.92552 15.8118 5.90405 16.4062C4.8856 16.9991 4.26353 17.7742 3.87866 18.5225C3.6572 18.9535 3.87806 19.5567 4.53491 19.751C5.90512 20.1558 8.02922 20.625 10.4998 20.625C12.9703 20.625 15.0943 20.1558 16.4646 19.751C17.1217 19.5568 17.3424 18.9536 17.1208 18.5225C16.7359 17.7741 16.114 16.999 15.0955 16.4062C14.0739 15.8118 12.6087 15.375 10.4998 15.375ZM16.5378 11.7627C16.6688 11.3698 17.0942 11.1573 17.4871 11.2881C19.8084 12.0619 21.4601 12.8744 23.0857 14.9062C23.3444 15.2297 23.292 15.7022 22.9685 15.9609C22.6451 16.2195 22.1725 16.1671 21.9138 15.8438C20.5394 14.1258 19.191 13.4381 17.0125 12.7119C16.6197 12.5808 16.4069 12.1555 16.5378 11.7627ZM10.4998 1.875C13.1921 1.875 15.3748 4.05761 15.3748 6.75C15.3748 9.44239 13.1921 11.625 10.4998 11.625C7.8075 11.6248 5.62476 9.44229 5.62476 6.75C5.62476 4.05771 7.8075 1.87516 10.4998 1.875ZM10.4998 3.375C8.63593 3.37516 7.12476 4.88614 7.12476 6.75C7.12476 8.61386 8.63593 10.1248 10.4998 10.125C12.3637 10.125 13.8748 8.61396 13.8748 6.75C13.8748 4.88604 12.3637 3.375 10.4998 3.375ZM16.1248 0.375C18.8171 0.375 20.9998 2.55761 20.9998 5.25C20.9998 6.29249 20.6715 7.26049 20.113 8.05371C19.8745 8.39225 19.4067 8.47377 19.0681 8.23535C18.7297 7.99685 18.6482 7.52902 18.8865 7.19043C19.2729 6.6417 19.4998 5.97348 19.4998 5.25C19.4998 3.38604 17.9887 1.875 16.1248 1.875C15.7107 1.87484 15.3748 1.53912 15.3748 1.125C15.3748 0.710884 15.7107 0.375159 16.1248 0.375Z"
    fill="currentColor"
  />
</svg>

<svg xmlns="http://www.w3.org/2000/svg" width="24" height="24" fill="none" data-fui-icon="true" viewBox="0 0 24 24"><path fill="currentColor" d="M10.5 13.875c2.318 0 4.056.482 5.35 1.235a6.63 6.63 0 0 1 2.604 2.726c.741 1.441-.203 2.951-1.565 3.354a22.9 22.9 0 0 1-6.39.935c-2.653 0-4.924-.503-6.389-.936-1.362-.402-2.305-1.912-1.564-3.353a6.63 6.63 0 0 1 2.603-2.726c1.295-.753 3.033-1.235 5.35-1.235m0 1.5c-2.11 0-3.574.437-4.596 1.031a5.13 5.13 0 0 0-2.025 2.117c-.222.43 0 1.034.656 1.228 1.37.405 3.494.874 5.965.874s4.594-.47 5.965-.874c.657-.194.877-.797.656-1.229a5.13 5.13 0 0 0-2.025-2.116c-1.022-.594-2.487-1.031-4.596-1.031m6.038-3.612a.75.75 0 0 1 .95-.475c2.32.774 3.972 1.586 5.598 3.618a.75.75 0 0 1-1.172.938c-1.375-1.718-2.723-2.406-4.902-3.132a.75.75 0 0 1-.474-.95M10.5 1.875a4.875 4.875 0 1 1 0 9.75 4.875 4.875 0 0 1 0-9.75m0 1.5a3.375 3.375 0 1 0 0 6.75 3.375 3.375 0 0 0 0-6.75m5.625-3a4.875 4.875 0 0 1 3.988 7.679.75.75 0 0 1-1.226-.864 3.375 3.375 0 0 0-2.762-5.315.75.75 0 0 1 0-1.5"/></svg>
